X:1
T:Father Grumble
M:6/8
L:1/8
K:C
 G,| EEE E/2 E3/2 E| FFF F2 F| G2 G e2 c| G4 z G| ccc E2 E| FFF A2 A|\
 G2 G F2 B,| C4 z||

